src/assets/logo.svg

<svg fill="none" height="721" viewBox="0 0 747 721" width="747" xmlns="http://www.w3.org/2000/svg"><path d="m309.476 82h300v300h-300z" fill="#ea346c" fill-opacity=".8" transform="matrix(.70259781 .71158718 -.71158718 .70259781 150.388989 -195.832175)"/><circle cx="516" cy="270" fill="#66aef8" fill-opacity=".9" r="175"/><path d="m428 295 151.554 87.5v175l-151.554 87.5-151.554-87.5v-175z" fill="#92fff8" fill-opacity=".9"/><g stroke="#1b1e20" stroke-dasharray="10 10" stroke-width="5"><path d="m415.226 256.375 8.516-4.917 1.25 2.165 3.008-1.736 3.008 1.736 1.25-2.165 8.516 4.917-1.25 2.165 8.516 4.917 1.25-2.165 8.516 4.916-1.25 2.165 8.516 4.917 1.25-2.165 8.516 4.917-1.25 2.165 8.516 4.916 1.25-2.165 8.515 4.917-1.25 2.165 8.516 4.917 1.25-2.165 8.516 4.916-1.25 2.165 8.516 4.917 1.25-2.165 8.516 4.917-1.25 2.165 8.516 4.916 1.25-2.165 8.516 4.917-1.25 2.165 8.516 4.917 1.25-2.165 8.516 4.916-1.25 2.165 8.516 4.917 1.25-2.165 8.516 4.917-1.25 2.165 8.516 4.916 1.25-2.165 8.515 4.917-1.25 2.165 8.516 4.917 1.25-2.165 8.516 4.916-1.25 2.165 8.516 4.917 1.25-2.165 8.516 4.917-1.25 2.165 3.008 1.736v3.474h2.5v9.833h-2.5v9.833h2.5v9.834h-2.5v9.833h2.5v9.833h-2.5v9.834h2.5v9.833h-2.5v9.833h2.5v9.834h-2.5v9.833h2.5v9.833h-2.5v9.834h2.5v9.833h-2.5v9.833h2.5v9.834h-2.5v9.833h2.5v9.833h-2.5v9.834h2.5v9.833h-2.5v9.833h2.5v9.834h-2.5v9.833h2.5v9.833h-2.5v3.474l-3.008 1.736 1.25 2.165-8.516 4.917-1.25-2.165-8.516 4.917 1.25 2.165-8.516 4.916-1.25-2.165-8.516 4.917 1.25 2.165-8.516 4.917-1.25-2.165-8.515 4.916 1.25 2.165-8.516 4.917-1.25-2.165-8.516 4.917 1.25 2.165-8.516 4.916-1.25-2.165-8.516 4.917 1.25 2.165-8.516 4.917-1.25-2.165-8.516 4.916 1.25 2.165-8.516 4.917-1.25-2.165-8.516 4.917 1.25 2.165-8.516 4.916-1.25-2.165-8.516 4.917 1.25 2.165-8.515 4.917-1.25-2.165-8.516 4.916 1.25 2.165-8.516 4.917-1.25-2.165-8.516 4.917 1.25 2.165-8.516 4.916-1.25-2.165-8.516 4.917 1.25 2.165-8.516 4.917-1.25-2.165-3.008 1.736-3.008-1.736-1.25 2.165-8.516-4.917 1.25-2.165-8.516-4.917-1.25 2.165-8.516-4.916 1.25-2.165-8.516-4.917-1.25 2.165-8.516-4.917 1.25-2.165-8.515-4.916-1.25 2.165-8.516-4.917 1.25-2.165-8.516-4.917-1.25 2.165-8.516-4.916 1.25-2.165-8.516-4.917-1.25 2.165-8.516-4.917 1.25-2.165-8.516-4.916-1.25 2.165-8.516-4.917 1.25-2.165-8.516-4.917-1.25 2.165-8.516-4.916 1.25-2.165-8.516-4.917-1.25 2.165-8.515-4.917 1.25-2.165-8.516-4.916-1.25 2.165-8.516-4.917 1.25-2.165-8.516-4.917-1.25 2.165-8.516-4.916 1.25-2.165-8.516-4.917-1.25 2.165-8.516-4.917 1.25-2.165-3.008-1.736v-3.474h-2.5v-9.833h2.5v-9.833h-2.5v-9.834h2.5v-9.833h-2.5v-9.833h2.5v-9.834h-2.5v-9.833h2.5v-9.833h-2.5v-9.834h2.5v-9.833h-2.5v-9.833h2.5v-9.834h-2.5v-9.833h2.5v-9.833h-2.5v-9.834h2.5v-9.833h-2.5v-9.833h2.5v-9.834h-2.5v-9.833h2.5v-9.833h-2.5v-9.834h2.5v-9.833h-2.5v-9.833h2.5v-3.474l3.008-1.736-1.25-2.165 8.516-4.917 1.25 2.165 8.516-4.917-1.25-2.165 8.516-4.916 1.25 2.165 8.516-4.917-1.25-2.165 8.516-4.917 1.25 2.165 8.516-4.916-1.25-2.165 8.515-4.917 1.25 2.165 8.516-4.917-1.25-2.165 8.516-4.916 1.25 2.165 8.516-4.917-1.25-2.165 8.516-4.917 1.25 2.165 8.516-4.916-1.25-2.165 8.516-4.917 1.25 2.165 8.516-4.917-1.25-2.165 8.516-4.916 1.25 2.165 8.516-4.917-1.25-2.165 8.516-4.917 1.25 2.165 8.516-4.916-1.25-2.165 8.515-4.917 1.25 2.165 8.516-4.917-1.25-2.165 8.516-4.916 1.25 2.165 8.516-4.917z"/><path d="m273.784 3.53546h379.783v379.783h-379.783z" transform="matrix(.70259781 .71158718 -.71158718 .70259781 83.939749 -193.769732)"/><circle cx="519.5" cy="249.5" r="225"/></g></svg>

<svg width="747" height="721" viewBox="0 0 747 721" fill="none" xmlns="http://www.w3.org/2000/svg">
<rect x="309.476" y="82" width="300" height="300" transform="rotate(45.3642 309.476 82)" fill="#EA346C" fill-opacity="0.8"/>
<circle cx="516" cy="270" r="175" fill="#66AEF8" fill-opacity="0.9"/>
<path d="M428 295L579.554 382.5V557.5L428 645L276.446 557.5V382.5L428 295Z" fill="#92FFF8" fill-opacity="0.9"/>
<path d="M415.226 256.375L423.742 251.458L424.992 253.623L428 251.887L431.008 253.623L432.258 251.458L440.774 256.375L439.524 258.54L448.04 263.457L449.29 261.292L457.806 266.208L456.556 268.373L465.072 273.29L466.322 271.125L474.838 276.042L473.588 278.207L482.104 283.123L483.354 280.958L491.869 285.875L490.619 288.04L499.135 292.957L500.385 290.792L508.901 295.708L507.651 297.873L516.167 302.79L517.417 300.625L525.933 305.542L524.683 307.707L533.199 312.623L534.449 310.458L542.965 315.375L541.715 317.54L550.231 322.457L551.481 320.292L559.997 325.208L558.747 327.373L567.263 332.29L568.513 330.125L577.029 335.042L575.779 337.207L584.295 342.123L585.545 339.958L594.06 344.875L592.81 347.04L601.326 351.957L602.576 349.792L611.092 354.708L609.842 356.873L618.358 361.79L619.608 359.625L628.124 364.542L626.874 366.707L629.882 368.443V371.917H632.382V381.75H629.882V391.583H632.382V401.417H629.882V411.25H632.382V421.083H629.882V430.917H632.382V440.75H629.882V450.583H632.382V460.417H629.882V470.25H632.382V480.083H629.882V489.917H632.382V499.75H629.882V509.583H632.382V519.417H629.882V529.25H632.382V539.083H629.882V548.917H632.382V558.75H629.882V568.583H632.382V578.417H629.882V588.25H632.382V598.083H629.882V601.557L626.874 603.293L628.124 605.458L619.608 610.375L618.358 608.21L609.842 613.127L611.092 615.292L602.576 620.208L601.326 618.043L592.81 622.96L594.06 625.125L585.544 630.042L584.294 627.877L575.779 632.793L577.029 634.958L568.513 639.875L567.263 637.71L558.747 642.627L559.997 644.792L551.481 649.708L550.231 647.543L541.715 652.46L542.965 654.625L534.449 659.542L533.199 657.377L524.683 662.293L525.933 664.458L517.417 669.375L516.167 667.21L507.651 672.127L508.901 674.292L500.385 679.208L499.135 677.043L490.619 681.96L491.869 684.125L483.354 689.042L482.104 686.877L473.588 691.793L474.838 693.958L466.322 698.875L465.072 696.71L456.556 701.627L457.806 703.792L449.29 708.708L448.04 706.543L439.524 711.46L440.774 713.625L432.258 718.542L431.008 716.377L428 718.113L424.992 716.377L423.742 718.542L415.226 713.625L416.476 711.46L407.96 706.543L406.71 708.708L398.194 703.792L399.444 701.627L390.928 696.71L389.678 698.875L381.162 693.958L382.412 691.793L373.897 686.877L372.647 689.042L364.131 684.125L365.381 681.96L356.865 677.043L355.615 679.208L347.099 674.292L348.349 672.127L339.833 667.21L338.583 669.375L330.067 664.458L331.317 662.293L322.801 657.377L321.551 659.542L313.035 654.625L314.285 652.46L305.769 647.543L304.519 649.708L296.003 644.792L297.253 642.627L288.737 637.71L287.487 639.875L278.972 634.958L280.222 632.793L271.706 627.877L270.456 630.042L261.94 625.125L263.19 622.96L254.674 618.043L253.424 620.208L244.908 615.292L246.158 613.127L237.642 608.21L236.392 610.375L227.876 605.458L229.126 603.293L226.118 601.557V598.083H223.618V588.25H226.118V578.417H223.618V568.583H226.118V558.75H223.618V548.917H226.118V539.083H223.618V529.25H226.118V519.417H223.618V509.583H226.118V499.75H223.618V489.917H226.118V480.083H223.618V470.25H226.118V460.417H223.618V450.583H226.118V440.75H223.618V430.917H226.118V421.083H223.618V411.25H226.118V401.417H223.618V391.583H226.118V381.75H223.618V371.917H226.118V368.443L229.126 366.707L227.876 364.542L236.392 359.625L237.642 361.79L246.158 356.873L244.908 354.708L253.424 349.792L254.674 351.957L263.19 347.04L261.94 344.875L270.456 339.958L271.706 342.123L280.222 337.207L278.972 335.042L287.487 330.125L288.737 332.29L297.253 327.373L296.003 325.208L304.519 320.292L305.769 322.457L314.285 317.54L313.035 315.375L321.551 310.458L322.801 312.623L331.317 307.707L330.067 305.542L338.583 300.625L339.833 302.79L348.349 297.873L347.099 295.708L355.615 290.792L356.865 292.957L365.381 288.04L364.131 285.875L372.647 280.958L373.897 283.123L382.413 278.207L381.163 276.042L389.678 271.125L390.928 273.29L399.444 268.373L398.194 266.208L406.71 261.292L407.96 263.457L416.476 258.54L415.226 256.375Z" stroke="#1B1E20" stroke-width="5" stroke-dasharray="10 10"/>
<rect x="273.784" y="3.53546" width="379.783" height="379.783" transform="rotate(45.3642 273.784 3.53546)" stroke="#1B1E20" stroke-width="5" stroke-dasharray="10 10"/>
<circle cx="519.5" cy="249.5" r="225" stroke="#1B1E20" stroke-width="5" stroke-dasharray="10 10"/>
</svg>
